images/47811.svg

<?xml version="1.0" encoding="UTF-8"?>
<svg xmlns="http://www.w3.org/2000/svg" xmlns:xlink="http://www.w3.org/1999/xlink" width="300pt" height="300pt" viewBox="0 0 300 300" version="1.1">
<defs>
<g>
<symbol overflow="visible" id="glyph0-0">
<path style="stroke:none;" d="M 0.796875 2.828125 L 0.796875 -11.28125 L 8.796875 -11.28125 L 8.796875 2.828125 Z M 1.703125 1.9375 L 7.90625 1.9375 L 7.90625 -10.390625 L 1.703125 -10.390625 Z M 1.703125 1.9375 "/>
</symbol>
<symbol overflow="visible" id="glyph0-1">
<path style="stroke:none;" d="M 1.578125 -11.671875 L 3.703125 -11.671875 L 8.875 -1.90625 L 8.875 -11.671875 L 10.40625 -11.671875 L 10.40625 0 L 8.28125 0 L 3.109375 -9.765625 L 3.109375 0 L 1.578125 0 Z M 1.578125 -11.671875 "/>
</symbol>
<symbol overflow="visible" id="glyph0-2">
<path style="stroke:none;" d="M 1.578125 -11.671875 L 3.15625 -11.671875 L 3.15625 -6.890625 L 8.890625 -6.890625 L 8.890625 -11.671875 L 10.46875 -11.671875 L 10.46875 0 L 8.890625 0 L 8.890625 -5.5625 L 3.15625 -5.5625 L 3.15625 0 L 1.578125 0 Z M 1.578125 -11.671875 "/>
</symbol>
<symbol overflow="visible" id="glyph0-3">
<path style="stroke:none;" d="M 8.5625 -11.28125 L 8.5625 -9.75 C 7.96875 -10.03125 7.40625 -10.238281 6.875 -10.375 C 6.34375 -10.519531 5.828125 -10.59375 5.328125 -10.59375 C 4.472656 -10.59375 3.8125 -10.425781 3.34375 -10.09375 C 2.875 -9.757812 2.640625 -9.285156 2.640625 -8.671875 C 2.640625 -8.160156 2.796875 -7.769531 3.109375 -7.5 C 3.421875 -7.238281 4.007812 -7.03125 4.875 -6.875 L 5.828125 -6.671875 C 7.003906 -6.453125 7.867188 -6.054688 8.421875 -5.484375 C 8.984375 -4.921875 9.265625 -4.164062 9.265625 -3.21875 C 9.265625 -2.09375 8.882812 -1.234375 8.125 -0.640625 C 7.375 -0.0546875 6.265625 0.234375 4.796875 0.234375 C 4.242188 0.234375 3.65625 0.164062 3.03125 0.03125 C 2.414062 -0.09375 1.773438 -0.273438 1.109375 -0.515625 L 1.109375 -2.140625 C 1.742188 -1.785156 2.367188 -1.515625 2.984375 -1.328125 C 3.597656 -1.148438 4.203125 -1.0625 4.796875 -1.0625 C 5.703125 -1.0625 6.398438 -1.238281 6.890625 -1.59375 C 7.378906 -1.945312 7.625 -2.453125 7.625 -3.109375 C 7.625 -3.679688 7.445312 -4.128906 7.09375 -4.453125 C 6.738281 -4.773438 6.160156 -5.015625 5.359375 -5.171875 L 4.40625 -5.359375 C 3.226562 -5.597656 2.375 -5.96875 1.84375 -6.46875 C 1.320312 -6.96875 1.0625 -7.660156 1.0625 -8.546875 C 1.0625 -9.578125 1.421875 -10.390625 2.140625 -10.984375 C 2.867188 -11.578125 3.875 -11.875 5.15625 -11.875 C 5.695312 -11.875 6.25 -11.820312 6.8125 -11.71875 C 7.382812 -11.625 7.96875 -11.476562 8.5625 -11.28125 Z M 8.5625 -11.28125 "/>
</symbol>
</g>
</defs>
<g id="surface53949">
<rect x="0" y="0" width="300" height="300" style="fill:rgb(100%,100%,100%);fill-opacity:1;stroke:none;"/>
<path style="fill:none;stroke-width:1.2;stroke-linecap:butt;stroke-linejoin:miter;stroke:rgb(0%,0%,0%);stroke-opacity:1;stroke-miterlimit:10;" d="M 256.609375 30.59375 L 246.824219 67.570312 "/>
<path style="fill:none;stroke-width:1.2;stroke-linecap:butt;stroke-linejoin:miter;stroke:rgb(0%,0%,0%);stroke-opacity:1;stroke-miterlimit:10;" d="M 246.824219 67.570312 L 209.90625 77.585938 "/>
<path style="fill:none;stroke-width:1.2;stroke-linecap:butt;stroke-linejoin:miter;stroke:rgb(0%,0%,0%);stroke-opacity:1;stroke-miterlimit:10;" d="M 209.90625 77.585938 L 205.015625 96.074219 "/>
<path style="fill:none;stroke-width:1.2;stroke-linecap:butt;stroke-linejoin:miter;stroke:rgb(0%,0%,100%);stroke-opacity:1;stroke-miterlimit:10;" d="M 205.015625 96.074219 L 200.121094 114.5625 "/>
<path style="fill:none;stroke-width:1.2;stroke-linecap:butt;stroke-linejoin:miter;stroke:rgb(0%,0%,100%);stroke-opacity:1;stroke-miterlimit:10;" d="M 200.121094 114.5625 L 213.6875 128.042969 "/>
<path style="fill:none;stroke-width:1.2;stroke-linecap:butt;stroke-linejoin:miter;stroke:rgb(0%,0%,0%);stroke-opacity:1;stroke-miterlimit:10;" d="M 213.6875 128.042969 L 227.25 141.523438 "/>
<path style="fill:none;stroke-width:1.2;stroke-linecap:butt;stroke-linejoin:miter;stroke:rgb(0%,0%,0%);stroke-opacity:1;stroke-miterlimit:10;" d="M 163.207031 124.574219 L 181.664062 119.566406 "/>
<path style="fill:none;stroke-width:1.2;stroke-linecap:butt;stroke-linejoin:miter;stroke:rgb(0%,0%,100%);stroke-opacity:1;stroke-miterlimit:10;" d="M 181.664062 119.566406 L 200.121094 114.5625 "/>
<path style=" stroke:none;fill-rule:nonzero;fill:rgb(100%,100%,100%);fill-opacity:1;" d="M 194.121094 105.0625 L 206.121094 105.0625 L 206.121094 124.0625 L 194.121094 124.0625 Z M 194.121094 105.0625 "/>
<g style="fill:rgb(0%,0%,100%);fill-opacity:1;">
  <use xlink:href="#glyph0-1" x="194.121094" y="119.914062"/>
</g>
<path style="fill:none;stroke-width:1.2;stroke-linecap:butt;stroke-linejoin:miter;stroke:rgb(0%,0%,0%);stroke-opacity:1;stroke-miterlimit:10;" d="M 227.25 141.523438 L 217.464844 178.5 "/>
<path style="fill:none;stroke-width:1.2;stroke-linecap:butt;stroke-linejoin:miter;stroke:rgb(0%,0%,0%);stroke-opacity:1;stroke-miterlimit:10;" d="M 217.464844 178.5 L 180.550781 188.515625 "/>
<path style="fill:none;stroke-width:1;stroke-linecap:butt;stroke-linejoin:miter;stroke:rgb(0%,0%,0%);stroke-opacity:1;stroke-miterlimit:10;" d="M 217.464844 178.5 L 217.464844 178.5 M 219.191406 180.953125 L 219.929688 180.214844 M 220.921875 183.40625 L 222.390625 181.925781 M 222.648438 185.859375 L 224.855469 183.640625 M 224.375 188.3125 L 227.316406 185.351562 M 226.105469 190.765625 L 229.78125 187.066406 M 227.832031 193.214844 L 232.242188 188.777344 M 229.558594 195.667969 L 234.707031 190.492188 M 231.289062 198.121094 L 237.167969 192.203125 M 233.015625 200.574219 L 239.632812 193.917969 M 234.746094 203.027344 L 242.09375 195.628906 M 236.472656 205.476562 L 244.558594 197.34375 M 238.199219 207.929688 L 247.019531 199.054688 M 239.835938 210.253906 L 249.351562 200.679688 "/>
<path style="fill:none;stroke-width:1;stroke-linecap:butt;stroke-linejoin:miter;stroke:rgb(0%,0%,0%);stroke-opacity:1;stroke-miterlimit:10;" d="M 153.417969 161.550781 L 153.417969 161.550781 M 155.148438 164.003906 L 155.882812 163.265625 M 156.875 166.457031 L 158.34375 164.976562 M 158.601562 168.910156 L 160.808594 166.691406 M 160.332031 171.359375 L 163.269531 168.402344 M 162.058594 173.8125 L 165.734375 170.117188 M 163.785156 176.265625 L 168.195312 171.828125 M 165.515625 178.71875 L 170.660156 173.542969 M 167.242188 181.171875 L 173.121094 175.253906 M 168.96875 183.625 L 175.585938 176.96875 M 170.699219 186.074219 L 178.046875 178.679688 M 172.425781 188.527344 L 180.511719 180.394531 M 174.152344 190.980469 L 182.976562 182.105469 M 175.789062 193.304688 L 185.308594 183.726562 "/>
<path style="fill:none;stroke-width:1.2;stroke-linecap:butt;stroke-linejoin:miter;stroke:rgb(0%,0%,0%);stroke-opacity:1;stroke-miterlimit:10;" d="M 153.417969 161.550781 L 163.207031 124.574219 "/>
<path style="fill:none;stroke-width:1.2;stroke-linecap:butt;stroke-linejoin:miter;stroke:rgb(0%,0%,0%);stroke-opacity:1;stroke-miterlimit:10;" d="M 116.503906 171.566406 L 153.417969 161.550781 "/>
<path style=" stroke:none;fill-rule:nonzero;fill:rgb(0%,0%,0%);fill-opacity:1;" d="M 163.207031 124.574219 L 140.832031 92.824219 L 131.316406 102.398438 Z M 163.207031 124.574219 "/>
<path style="fill:none;stroke-width:1.2;stroke-linecap:butt;stroke-linejoin:miter;stroke:rgb(0%,0%,0%);stroke-opacity:1;stroke-miterlimit:10;" d="M 136.074219 97.609375 L 99.160156 107.625 "/>
<path style="fill:none;stroke-width:1.2;stroke-linecap:butt;stroke-linejoin:miter;stroke:rgb(0%,0%,0%);stroke-opacity:1;stroke-miterlimit:10;" d="M 99.160156 107.625 L 65.023438 90.363281 "/>
<path style="fill:none;stroke-width:1.2;stroke-linecap:butt;stroke-linejoin:miter;stroke:rgb(0%,0%,0%);stroke-opacity:1;stroke-miterlimit:10;" d="M 91.683594 113.929688 L 64.378906 100.121094 "/>
<path style="fill:none;stroke-width:1.2;stroke-linecap:butt;stroke-linejoin:miter;stroke:rgb(0%,0%,0%);stroke-opacity:1;stroke-miterlimit:10;" d="M 89.375 144.601562 L 99.160156 107.625 "/>
<path style="fill:none;stroke-width:1.2;stroke-linecap:butt;stroke-linejoin:miter;stroke:rgb(0%,0%,0%);stroke-opacity:1;stroke-miterlimit:10;" d="M 65.023438 90.363281 L 51.542969 103.929688 "/>
<path style="fill:none;stroke-width:1.2;stroke-linecap:butt;stroke-linejoin:miter;stroke:rgb(0%,0%,100%);stroke-opacity:1;stroke-miterlimit:10;" d="M 51.542969 103.929688 L 38.0625 117.492188 "/>
<path style="fill:none;stroke-width:1.2;stroke-linecap:butt;stroke-linejoin:miter;stroke:rgb(0%,0%,100%);stroke-opacity:1;stroke-miterlimit:10;" d="M 38.0625 117.492188 L 45.257812 136.054688 "/>
<path style="fill:none;stroke-width:1.2;stroke-linecap:butt;stroke-linejoin:miter;stroke:rgb(0%,0%,0%);stroke-opacity:1;stroke-miterlimit:10;" d="M 45.257812 136.054688 L 52.457031 154.613281 "/>
<path style=" stroke:none;fill-rule:nonzero;fill:rgb(100%,100%,100%);fill-opacity:1;" d="M 26.0625 107.992188 L 50.0625 107.992188 L 50.0625 126.992188 L 26.0625 126.992188 Z M 26.0625 107.992188 "/>
<g style="fill:rgb(0%,0%,100%);fill-opacity:1;">
  <use xlink:href="#glyph0-1" x="26.0625" y="122.84375"/>
  <use xlink:href="#glyph0-2" x="38.03125" y="122.84375"/>
</g>
<path style="fill:none;stroke-width:1.2;stroke-linecap:butt;stroke-linejoin:miter;stroke:rgb(0%,0%,0%);stroke-opacity:1;stroke-miterlimit:10;" d="M 52.457031 154.613281 L 42.671875 191.589844 "/>
<path style="fill:none;stroke-width:1.2;stroke-linecap:butt;stroke-linejoin:miter;stroke:rgb(0%,0%,0%);stroke-opacity:1;stroke-miterlimit:10;" d="M 60.179688 160.613281 L 52.351562 190.195312 "/>
<path style="fill:none;stroke-width:1.2;stroke-linecap:butt;stroke-linejoin:miter;stroke:rgb(0%,0%,0%);stroke-opacity:1;stroke-miterlimit:10;" d="M 89.375 144.601562 L 52.457031 154.613281 "/>
<path style="fill:none;stroke-width:1.2;stroke-linecap:butt;stroke-linejoin:miter;stroke:rgb(0%,0%,0%);stroke-opacity:1;stroke-miterlimit:10;" d="M 42.671875 191.589844 L 69.800781 218.554688 "/>
<path style="fill:none;stroke-width:1.2;stroke-linecap:butt;stroke-linejoin:miter;stroke:rgb(0%,0%,0%);stroke-opacity:1;stroke-miterlimit:10;" d="M 69.800781 218.554688 L 106.714844 208.542969 "/>
<path style="fill:none;stroke-width:1.2;stroke-linecap:butt;stroke-linejoin:miter;stroke:rgb(0%,0%,0%);stroke-opacity:1;stroke-miterlimit:10;" d="M 71.136719 208.867188 L 100.667969 200.855469 "/>
<path style="fill:none;stroke-width:1.2;stroke-linecap:butt;stroke-linejoin:miter;stroke:rgb(0%,0%,0%);stroke-opacity:1;stroke-miterlimit:10;" d="M 106.714844 208.542969 L 116.503906 171.566406 "/>
<path style="fill:none;stroke-width:1.2;stroke-linecap:butt;stroke-linejoin:miter;stroke:rgb(0%,0%,0%);stroke-opacity:1;stroke-miterlimit:10;" d="M 116.503906 171.566406 L 89.375 144.601562 "/>
<path style="fill:none;stroke-width:1.2;stroke-linecap:butt;stroke-linejoin:miter;stroke:rgb(0%,0%,0%);stroke-opacity:1;stroke-miterlimit:10;" d="M 120.132812 162.484375 L 98.429688 140.914062 "/>
<path style="fill:none;stroke-width:1.2;stroke-linecap:butt;stroke-linejoin:miter;stroke:rgb(0%,0%,0%);stroke-opacity:1;stroke-miterlimit:10;" d="M 244.59375 205.464844 L 239.703125 223.953125 "/>
<path style="fill:none;stroke-width:1.2;stroke-linecap:butt;stroke-linejoin:miter;stroke:rgb(80%,80%,0%);stroke-opacity:1;stroke-miterlimit:10;" d="M 239.703125 223.953125 L 234.808594 242.441406 "/>
<path style="fill:none;stroke-width:1.2;stroke-linecap:butt;stroke-linejoin:miter;stroke:rgb(80%,80%,0%);stroke-opacity:1;stroke-miterlimit:10;" d="M 234.808594 242.441406 L 248.375 255.925781 "/>
<path style="fill:none;stroke-width:1.2;stroke-linecap:butt;stroke-linejoin:miter;stroke:rgb(0%,0%,0%);stroke-opacity:1;stroke-miterlimit:10;" d="M 248.375 255.925781 L 261.9375 269.40625 "/>
<path style=" stroke:none;fill-rule:nonzero;fill:rgb(100%,100%,100%);fill-opacity:1;" d="M 229.808594 232.941406 L 240.808594 232.941406 L 240.808594 251.941406 L 229.808594 251.941406 Z M 229.808594 232.941406 "/>
<g style="fill:rgb(80%,80%,0%);fill-opacity:1;">
  <use xlink:href="#glyph0-3" x="229.808594" y="247.792969"/>
</g>
</g>
</svg>

<svg xmlns="http://www.w3.org/2000/svg" xmlns:xlink="http://www.w3.org/1999/xlink" width="300pt" height="300pt" viewBox="0 0 300 300"><defs><symbol overflow="visible"><path d="M.797 2.828v-14.11h8V2.83zm.906-.89h6.203v-12.33H1.703zm0 0"/></symbol><symbol overflow="visible" id="a"><path d="M1.578-11.672h2.125l5.172 9.766v-9.766h1.53V0H8.282L3.11-9.766V0H1.577zm0 0"/></symbol><symbol overflow="visible" id="b"><path d="M1.578-11.672h1.578v4.78H8.89v-4.78h1.58V0H8.89v-5.563H3.157V0H1.578zm0 0"/></symbol><symbol overflow="visible" id="c"><path d="M8.563-11.28v1.53c-.594-.28-1.157-.488-1.688-.625-.53-.145-1.047-.22-1.547-.22-.855 0-1.516.17-1.984.5-.47.337-.703.81-.703 1.423 0 .512.157.902.47 1.172.312.262.898.47 1.765.625l.953.203c1.176.22 2.04.617 2.594 1.188.562.562.844 1.32.844 2.265 0 1.126-.383 1.986-1.14 2.58-.75.585-1.86.874-3.33.874-.554 0-1.14-.07-1.765-.203-.616-.124-1.257-.303-1.92-.546V-2.14c.632.355 1.257.624 1.874.812.614.18 1.22.266 1.813.266.906 0 1.6-.176 2.094-.532.49-.35.735-.86.735-1.515 0-.57-.18-1.02-.53-1.343-.357-.32-.935-.563-1.736-.72l-.954-.186c-1.18-.238-2.03-.61-2.562-1.11-.524-.5-.782-1.19-.782-2.077 0-1.03.36-1.844 1.08-2.437.725-.594 1.733-.89 3.014-.89.54 0 1.094.054 1.657.155.57.095 1.156.243 1.75.44zm0 0"/></symbol></defs><g><path fill="#fff" d="M0 0h300v300H0z"/><path d="M256.61 30.594l-9.786 36.976M246.824 67.57l-36.918 10.016M209.906 77.586l-4.89 18.488" stroke-width="1.2" stroke="#000" stroke-miterlimit="10" fill="none"/><path d="M205.016 96.074l-4.895 18.49M200.12 114.563l13.567 13.48" stroke-width="1.2" stroke="#00f" stroke-miterlimit="10" fill="none"/><path d="M213.688 128.043l13.562 13.48M163.207 124.574l18.457-5.008" stroke-width="1.2" stroke="#000" stroke-miterlimit="10" fill="none"/><path d="M181.664 119.566l18.457-5.004" stroke-width="1.2" stroke="#00f" stroke-miterlimit="10" fill="none"/><path d="M194.12 105.063h12v19h-12zm0 0" fill="#fff"/><use xlink:href="#a" x="194.121" y="119.914" fill="#00f"/><path d="M227.25 141.523l-9.785 36.977M217.465 178.5l-36.914 10.016" stroke-width="1.2" stroke="#000" stroke-miterlimit="10" fill="none"/><path d="M217.465 178.5m1.726 2.453l.74-.738m.992 3.19l1.47-1.48m.256 3.934l2.207-2.22m-.48 4.673l2.94-2.96m-1.21 5.413l3.676-3.7m-1.948 6.15l4.41-4.44m-2.683 6.892l5.147-5.176m-3.418 7.63l5.878-5.92m-4.152 8.372l6.617-6.656m-4.887 9.11l7.348-7.4m-5.62 9.85l8.085-8.134m-6.36 10.586l8.82-8.875m-7.184 11.2l9.516-9.575M153.418 161.55m1.73 2.454l.735-.738m.992 3.19l1.47-1.48m.257 3.934l2.207-2.22m-.478 4.67l2.938-2.958m-1.21 5.41l3.674-3.695m-1.95 6.15l4.41-4.44m-2.678 6.892l5.144-5.177m-3.418 7.63l5.88-5.92m-4.153 8.372l6.616-6.656m-4.887 9.104l7.347-7.394m-5.62 9.847l8.085-8.132m-6.36 10.585l8.825-8.875m-7.188 11.2l9.52-9.578" stroke="#000" stroke-miterlimit="10" fill="none"/><path d="M153.418 161.55l9.79-36.976M116.504 171.566l36.914-10.015" stroke-width="1.2" stroke="#000" stroke-miterlimit="10" fill="none"/><path d="M163.207 124.574l-22.375-31.75-9.516 9.574zm0 0"/><path d="M136.074 97.61L99.16 107.624M99.16 107.625L65.023 90.363M91.684 113.93L64.38 100.12M89.375 144.602l9.785-36.977M65.023 90.363l-13.48 13.567" stroke-width="1.2" stroke="#000" stroke-miterlimit="10" fill="none"/><path d="M51.543 103.93l-13.48 13.562M38.063 117.492l7.195 18.563" stroke-width="1.2" stroke="#00f" stroke-miterlimit="10" fill="none"/><path d="M45.258 136.055l7.2 18.558" stroke-width="1.2" stroke="#000" stroke-miterlimit="10" fill="none"/><path d="M26.063 107.992h24v19h-24zm0 0" fill="#fff"/><g fill="#00f"><use xlink:href="#a" x="26.063" y="122.844"/><use xlink:href="#b" x="38.031" y="122.844"/></g><path d="M52.457 154.613l-9.785 36.977M60.18 160.613l-7.828 29.582M89.375 144.602l-36.918 10.01M42.672 191.59l27.13 26.965M69.8 218.555l36.915-10.012M71.137 208.867l29.53-8.012M106.715 208.543l9.79-36.977M116.504 171.566l-27.13-26.964M120.133 162.484l-21.703-21.57M244.594 205.465l-4.89 18.488" stroke-width="1.2" stroke="#000" stroke-miterlimit="10" fill="none"/><path d="M239.703 223.953l-4.894 18.488M234.81 242.44l13.565 13.486" stroke-width="1.2" stroke="#cc0" stroke-miterlimit="10" fill="none"/><path d="M248.375 255.926l13.563 13.48" stroke-width="1.2" stroke="#000" stroke-miterlimit="10" fill="none"/><path d="M229.81 232.94h11v19h-11zm0 0" fill="#fff"/><use xlink:href="#c" x="229.809" y="247.793" fill="#cc0"/></g></svg>
